images/leaf-left.svg

<svg width="209" height="280" viewBox="0 0 209 280" fill="none" xmlns="http://www.w3.org/2000/svg">
<path d="M163.734 279.474C166.553 279.96 173.106 278.502 174.661 277.432C184.986 270.238 205.208 258.028 208.338 245.097C208.863 242.881 199.783 237.923 199.044 235.512C194.027 230.942 192.005 229.659 189.361 222.97C181.583 203.196 219.518 182.119 189.186 161.392C166.962 146.206 143.649 148.326 157.92 111.013C172.212 73.6809 163.17 -5.02754 114.794 9.28309C87.0283 17.4884 100.581 57.0759 81.3895 77.3753C63.1513 96.6635 67.0789 118.304 87.0671 139.323C107.055 160.342 90.9559 166.875 77.3452 186.338C60.993 209.71 99.5112 226.49 117.944 232.712C132.76 237.689 167.195 260.477 163.734 279.474Z" fill="url(#paint0_linear_39_3291)"/>
<path d="M190.819 262.247L191.228 261.8C122.727 198.024 99.4724 100.494 129.066 0.941717L128.483 0.766724C114.464 47.9568 112.286 96.5274 122.163 141.248C132.566 188.263 156.287 230.106 190.819 262.247Z" fill="#FCFDFE"/>
<path d="M69.4122 195.224C95.0002 194.699 133.985 206.365 156.307 221.24L156.637 220.734C134.238 205.802 95.0975 194.077 69.3928 194.621L69.4122 195.224Z" fill="#FCFDFE"/>
<path d="M177.5 249.569L178.025 249.258C170.851 237.3 169.995 222.173 175.498 204.324C179.522 191.219 186.814 176.986 197.139 161.975L196.633 161.625C186.269 176.675 178.959 190.966 174.914 204.129C169.373 222.173 170.248 237.456 177.5 249.569Z" fill="#FCFDFE"/>
<path d="M120.997 134.851L121.541 134.559C109.175 111.324 84.5978 98.6273 66.1651 92.0553L65.9706 92.6192C84.3061 99.1717 108.728 111.791 120.997 134.851Z" fill="#FCFDFE"/>
<path d="M116.136 74.8086L116.719 74.9447C123.291 46.0513 147.168 26.0825 160.818 16.7689L160.468 16.2634C146.76 25.6353 122.766 45.7013 116.136 74.8086Z" fill="#FCFDFE"/>
<path d="M177.889 265.261C180.592 264.366 185.706 260.011 186.561 258.319C192.297 247.12 204.411 226.84 201.086 213.949C200.522 211.751 190.158 211.615 188.369 209.846C181.778 208.174 179.406 207.999 173.923 203.313C157.765 189.527 181.35 153.089 144.835 149.026C118.08 146.051 98.5003 158.903 93.5616 119.238C88.6228 79.5725 43.6687 14.3386 7.67828 49.7068C-12.971 70.0061 17.5946 98.5691 10.1866 125.499C3.1479 151.087 16.778 168.353 44.291 177.511C71.8039 186.669 60.6626 200.007 57.8044 223.593C54.3628 251.903 96.2254 248.617 115.436 245.467C130.913 242.92 172.017 246.867 177.889 265.261Z" fill="url(#paint1_linear_39_3291)"/>
<path d="M193.697 237.32L193.852 236.737C103.4 212.626 37.0577 137.457 16.3889 35.6879L15.7862 35.8045C25.5859 84.0446 46.4879 127.949 76.2369 162.792C107.522 199.385 148.121 225.168 193.697 237.32Z" fill="#FCFDFE"/>
<path d="M55.0432 235.201C77.3842 222.698 117.283 214.687 143.979 217.332L144.037 216.729C117.244 214.065 77.1897 222.115 54.7516 234.676L55.0432 235.201Z" fill="#FCFDFE"/>
<path d="M175.984 232.381L176.295 231.856C164.356 224.682 156.482 211.732 152.943 193.377C150.337 179.922 150.065 163.92 152.146 145.837L151.543 145.759C149.462 163.92 149.735 179.961 152.34 193.494C155.937 212.024 163.89 225.109 175.984 232.381Z" fill="#FCFDFE"/>
<path d="M72.2121 157.659L72.5426 157.153C50.7267 142.454 23.0581 142.784 3.69211 145.662L3.78933 146.265C23.0387 143.406 50.5517 143.076 72.2121 157.659Z" fill="#FCFDFE"/>
<path d="M39.7021 106.949L40.2854 106.794C32.5079 78.192 44.213 49.3568 51.8739 34.7157L51.3295 34.424C43.6297 49.1624 31.8663 78.1531 39.7021 106.949Z" fill="#FCFDFE"/>
<defs>
<linearGradient id="paint0_linear_39_3291" x1="162.838" y1="20.6628" x2="85.3113" y2="516.283" gradientUnits="userSpaceOnUse">
<stop offset="0.00359712" stop-color="#C37A87"/>
<stop offset="1" stop-color="#9571F6"/>
</linearGradient>
<linearGradient id="paint1_linear_39_3291" x1="114.263" y1="58.2604" x2="55.2083" y2="435.791" gradientUnits="userSpaceOnUse">
<stop stop-color="#FF9085"/>
<stop offset="1" stop-color="#FB6FBB"/>
</linearGradient>
</defs>
</svg>

<svg width="209" height="280" fill="none" xmlns="http://www.w3.org/2000/svg"><path d="M163.734 279.474c2.819.486 9.372-.972 10.927-2.042 10.325-7.194 30.547-19.404 33.677-32.335.525-2.216-8.555-7.174-9.294-9.585-5.017-4.57-7.039-5.853-9.683-12.542-7.778-19.774 30.157-40.851-.175-61.578-22.224-15.186-45.537-13.066-31.266-50.379 14.292-37.332 5.25-116.04-43.126-101.73-27.766 8.205-14.213 47.793-33.404 68.092-18.239 19.288-14.311 40.929 5.677 61.948s3.889 27.552-9.722 47.015c-16.352 23.372 22.166 40.152 40.599 46.374 14.816 4.977 49.251 27.765 45.79 46.762z" fill="url(#paint0_linear_39_3291)"/><path d="M190.819 262.247l.409-.447C122.727 198.024 99.472 100.494 129.066.942l-.583-.175c-14.019 47.19-16.197 95.76-6.32 140.481 10.403 47.015 34.124 88.858 68.656 120.999z" fill="#FCFDFE"/><path d="M69.412 195.224c25.588-.525 64.573 11.141 86.895 26.016l.33-.506c-22.399-14.932-61.54-26.657-87.244-26.113l.02.603zM177.5 249.569l.525-.311c-7.174-11.958-8.03-27.085-2.527-44.934 4.024-13.105 11.316-27.338 21.641-42.349l-.506-.35c-10.364 15.05-17.674 29.341-21.719 42.504-5.541 18.044-4.666 33.327 2.586 45.44zm-56.503-114.718l.544-.292c-12.366-23.235-36.943-35.932-55.376-42.504l-.194.564c18.335 6.553 42.757 19.172 55.026 42.232zm-4.861-60.042l.583.136c6.572-28.894 30.449-48.862 44.099-58.176l-.35-.506c-13.708 9.372-37.702 29.438-44.332 58.546z" fill="#FCFDFE"/><path d="M177.889 265.261c2.703-.895 7.817-5.25 8.672-6.942 5.736-11.199 17.85-31.479 14.525-44.37-.564-2.198-10.928-2.334-12.717-4.103-6.591-1.672-8.963-1.847-14.446-6.533-16.158-13.786 7.427-50.224-29.088-54.287-26.755-2.975-46.335 9.877-51.273-29.788-4.94-39.665-49.893-104.9-85.884-69.531-20.649 20.3 9.917 48.862 2.509 75.792-7.04 25.588 6.591 42.854 34.104 52.012 27.513 9.158 16.372 22.496 13.513 46.082-3.441 28.31 38.421 25.024 57.632 21.874 15.477-2.547 56.581 1.4 62.453 19.794z" fill="url(#paint1_linear_39_3291)"/><path d="M193.697 237.32l.155-.583C103.4 212.626 37.058 137.457 16.389 35.687l-.603.117c9.8 48.24 30.702 92.145 60.45 126.988 31.286 36.593 71.885 62.376 117.461 74.528z" fill="#FCFDFE"/><path d="M55.043 235.201c22.341-12.503 62.24-20.514 88.936-17.869l.058-.603c-26.793-2.664-66.847 5.386-89.285 17.947l.291.525zm120.941-2.82l.311-.525c-11.939-7.174-19.813-20.124-23.352-38.479-2.606-13.455-2.878-29.457-.797-47.54l-.603-.078c-2.081 18.161-1.808 34.202.797 47.735 3.597 18.53 11.55 31.615 23.644 38.887zM72.212 157.659l.33-.506c-21.815-14.699-49.484-14.369-68.85-11.491l.097.603c19.25-2.859 46.763-3.189 68.423 11.394zm-32.51-50.71l.583-.155c-7.777-28.602 3.928-57.437 11.589-72.078l-.544-.292c-7.7 14.738-19.464 43.73-11.628 72.525z" fill="#FCFDFE"/><defs><linearGradient id="paint0_linear_39_3291" x1="162.838" y1="20.663" x2="85.311" y2="516.283" gradientUnits="userSpaceOnUse"><stop offset=".004" stop-color="#C37A87"/><stop offset="1" stop-color="#9571F6"/></linearGradient><linearGradient id="paint1_linear_39_3291" x1="114.263" y1="58.26" x2="55.208" y2="435.791" gradientUnits="userSpaceOnUse"><stop stop-color="#FF9085"/><stop offset="1" stop-color="#FB6FBB"/></linearGradient></defs></svg>
